X: 33626
T: Ram's Horns
R: reel
M: 4/4
K: Ddorian
|:c|A2TA2 CDEG|ADDF TE2 DB/c/|dace CDEC|A,DDF TE2D:|
|:c|Addg TedcG|Addg egdg|egdg TedcG|A/A/A ag Te2d:|

